X:10802
T:The Banshee
R:Reel
B:Tuneworks Tunebook (https://www.tuneworks.co.uk/)
G:tuneworks
Z:Jon Warbrick <jon.warbrick@googlemail.com>
M:4/4
L:1/8
K:G
|: "G"G3 D EDB,D | GFGB d2 Bd | "C"eged BAGA | "D"BAGE E2 DE | 
"G"G2 GD EDB,D | GFGB d2Bd | "C"eged BAGA | [1"D"BAGE E2 DE :| [2"D"BAGE E2 D2 ||
|: "Em"eaag egge | dBBA BABd | "C"eB B2 gBfB | "D"eBBA B2 Bd | 
"Em"eaag egge | dBBA B2 Bd | "C"eged BAGA | "D"BAGE E2 D2 :|